flaticon/essential/locked-4.svg

<svg xmlns="http://www.w3.org/2000/svg" width="32" height="32" viewBox="0 0 24 24">
    <path d="M 19.109375 8.9375 L 19.109375 6.445312 C 19.109375 2.890625 15.921875 0 12 0 C 8.078125 0 4.890625 2.890625 4.890625 6.445312 L 4.890625 8.9375 C 3.378906 9.199219 2.222656 10.515625 2.222656 12.101562 L 2.222656 20.789062 C 2.222656 22.558594 3.664062 24 5.433594 24 L 18.566406 24 C 20.335938 24 21.777344 22.558594 21.777344 20.789062 L 21.777344 12.101562 C 21.777344 10.515625 20.621094 9.199219 19.109375 8.9375 Z M 5.777344 6.445312 C 5.777344 3.382812 8.570312 0.890625 12 0.890625 C 15.429688 0.890625 18.222656 3.382812 18.222656 6.445312 L 18.222656 8.890625 L 5.777344 8.890625 Z M 20.890625 20.789062 C 20.890625 22.070312 19.847656 23.109375 18.566406 23.109375 L 5.433594 23.109375 C 4.152344 23.109375 3.109375 22.070312 3.109375 20.789062 L 3.109375 12.101562 C 3.109375 10.820312 4.152344 9.777344 5.433594 9.777344 L 18.566406 9.777344 C 19.847656 9.777344 20.890625 10.820312 20.890625 12.101562 Z M 20.890625 20.789062"/>
    <path d="M 12 12.445312 C 11.019531 12.445312 10.222656 13.242188 10.222656 14.222656 L 10.222656 16.890625 C 10.222656 17.871094 11.019531 18.667969 12 18.667969 C 12.980469 18.667969 13.777344 17.871094 13.777344 16.890625 L 13.777344 14.222656 C 13.777344 13.242188 12.980469 12.445312 12 12.445312 Z M 12.890625 16.890625 C 12.890625 17.378906 12.488281 17.777344 12 17.777344 C 11.511719 17.777344 11.109375 17.378906 11.109375 16.890625 L 11.109375 14.222656 C 11.109375 13.730469 11.511719 13.332031 12 13.332031 C 12.488281 13.332031 12.890625 13.730469 12.890625 14.222656 Z M 12.890625 16.890625"/>
</svg>

<svg xmlns="http://www.w3.org/2000/svg" width="32" height="32" viewBox="0 0 24 24">
    <path d="M19.11 8.938V6.444C19.11 2.891 15.921 0 12 0S4.89 2.89 4.89 6.445v2.492a3.218 3.218 0 0 0-2.667 3.165v8.687c0 1.77 1.441 3.211 3.21 3.211h13.133c1.77 0 3.211-1.441 3.211-3.21v-8.688a3.218 3.218 0 0 0-2.668-3.165zM5.776 6.444C5.777 3.383 8.57.891 12 .891c3.43 0 6.223 2.492 6.223 5.554v2.446H5.777zM20.891 20.79a2.324 2.324 0 0 1-2.325 2.32H5.434a2.324 2.324 0 0 1-2.325-2.32v-8.687a2.327 2.327 0 0 1 2.325-2.325h13.132a2.327 2.327 0 0 1 2.325 2.325zm0 0"/>
    <path d="M12 12.445c-.98 0-1.777.797-1.777 1.778v2.668c0 .98.797 1.777 1.777 1.777.98 0 1.777-.797 1.777-1.777v-2.668c0-.98-.797-1.778-1.777-1.778zm.89 4.446a.892.892 0 0 1-.89.886.892.892 0 0 1-.89-.886v-2.668c0-.493.402-.891.89-.891s.89.398.89.89zm0 0"/>
</svg>
